X:1
T:Pas de Deux, IV. Coda
T:Pas de Deux, IV. Coda
T:Swan Lake, Piano Arrangement for 3 hands
T:Hinci
C:Hinci
%%score { ( 1 4 ) | 2 | 3 }
L:1/8
Q:1/4=162
M:2/4
K:G
V:1 treble nm="Piano" snm="Pno."
V:4 treble 
V:2 bass 
V:3 treble 
V:1
"^Allegro molto vivace." z4 | z2 z!ff! d' | g'3 b | e'3 a | d'3 f |{/a} gf gb | e'3 ^g | %7
{/b} a^g af' | e'3 ^a |{/c'} b^a bd' | g'3 b | e'3 a | d'3 f |{/a} gf gb | ^c'3 b | ag fe | dd fa | %17
 [dd'][^d^d'] [ee'][ff'] | g'3 b | e'3 a | d'3 f |{/a} gf gb | e'3 ^g |{/b} a^g af' | e'3 ^a | %25
{/c'} b^a bd' | g'3 b | e'3 a | d'3 f |{/a} gf gb | ^c'3 b | ag fe | dd fa | d' z z [fa] | %34
 [ac']3 [df] | [^e^g]3 [de] | [fa]3 [d^e] |{/g} .[df].[^e^g] .[fa].[ac'] | [c'e']3 [fa] | %39
 [^gb]3 [fa] | [ac']3 [^e^g] |{/b} [fa][^e^g] [fa][fa] | [ac']3 [df] | [^e^g]3 [de] | [fa]3 [d^e] | %45
{/g} .[df].[^e^g] .[fa].[ac'] | [c'e']3 [fa] | [^gb]3 [fa] | [ac']3 [^e^g] | %49
{/b} [fa][^e^g] [fa][df] | [fa][ac'] [gb][Bg] | [Af][ca] [Bg][Ge] | [Fd][Af] [Ge][Bg] | %53
 [Af][ca] [Bg][gb] | [fa][ac'] [gb][Bg] | [Af][ca] [Bg][Ge] | [Fd]!mf!.[df] .[ce].[Ac] | %57
 .[^GB].[Bd] .[Ac]!f!.d' |!ff! g'3 b | e'3 a | d'3 f |{/a} gf gb | e'3 ^g |{/b} a^g af' | e'3 ^a | %65
{/c'} b^a bd' | g'3 b | e'3 a | d'3 f |{/a} gf gb | e'3 a | f'e' c'a | gg bd' | %73
 z/ b/^c'/^d'/ e'/f'/g'/a'/ |!ff! [bb']2 [gg']2 | [ff']2 [bb']2 | [gg']2 [ff']2 | %77
 [bb'][gg'] [ff']2 | [bb']2 [gg']2 | [ff']2 [bb']2 | [gg'][ff'] [bb'][gg'] | %81
 f'/b/^c'/^d'/ e'/f'/g'/a'/ | [bb']2 [gg']2 | [ff']2 [bb']2 | [gg']2 [ff']2 | [bb'][gg'] [ff']2 | %86
 [bb']2 [gg']2 | [ff']2 [bb']2 | [gg'][ff'] b^c' | d' z z [fa] | [ac']3 [df] | [^e^g]3 [de] | %92
 [fa]3 [d^e] |{/g} .[df].[^e^g] .[fa].[ac'] | [c'e']3 [fa] | [^gb]3 [fa] | [ac']3 [^e^g] | %97
{/b} [fa][^e^g] [fa][df] | [fa][ac'] [gb][Bg] | [Af][ca] [Bg][Ge] | [Fd][Af] [Ge][Bg] | %101
 [Af][ca] [Bg][gb] | [fa][ac'] [gb][Bg] | [Af][ca] [Bg][Ge] | [Fd]!mf!.[df] .[ce].[Ac] | %105
 .[^GB].[Bd] .[Ac]!f!.d' |!ff! g'3 b | e'3 a | d'3 f |{/a} gf gb | e'3 ^g |{/b} a^g af' | e'3 ^a | %113
{/c'} b^a bd' | g'3 b | e'3 a | d'3 f |{/a} gf gb | e'3 b | b^a be' | f'3 b | ^c'^d' e'f' | %122
 !//-!g'2 g2 | !//-!g'2 g2 | !//-!g'2 g2 | !//-!g'2 g2 | [gbd']/g'/d/d'/ g/g'/f/f'/ | %127
 e/e'/d/d'/ c/c'/B/b/ | f/f'/e/e'/ d/d'/c/c'/ | B/b/A/a/ e/e'/f/f'/ | !//-!g'2 g2 | !//-!g'2 g2 | %132
 !//-!g'2 g2 | !//-!g'2 g2 | [gbd']/g'/d/d'/ g/g'/f/f'/ | e/e'/d/d'/ c/c'/B/b/ | %136
 f/f'/e/e'/ d/d'/c/c'/ | B/b/A/a/ e/e'/f/f'/ | [gbd'g']d [fad'f']d | [gbd'g']d [fad'f']d | %140
 [gbd'g']d [fad'f']d | [gbd'g']d [fad'f']d | [gbd'g']2 [gbd'g']2 | [gbd'g']2 [gbd'g']2 | %144
 [gbd'g']2 [gbd'g']2 | [gbd'g']2 [gbd'g']2 |[Q:1/4=120] [gbd'g']2 z2 | [bg'b']2 z2 | %148
[Q:1/4=80] [G,B,DG]4 |] %149
V:2
!f! [G,,,G,,].[D,G,B,D] [G,,,G,,].[D,G,B,D] | [G,,,G,,].[D,G,B,D] [G,,,G,,].[D,G,B,D] | %2
 [G,,,G,,].[D,G,B,D] [G,,,G,,].[D,G,B,D] | [G,,,G,,].[D,F,A,D] [G,,,G,,].[D,F,A,D] | %4
 [G,,,G,,].[D,G,B,D] [G,,,G,,].[D,B,D] | [G,,,G,,].[D,B,D] [G,,,G,,].[D,G,B,D] | %6
 [G,,,G,,].[D,A,CD] [G,,,G,,].[D,A,CD] | [G,,,G,,].[D,A,CD] [G,,,G,,].[D,A,CD] | %8
 [G,,,G,,].[D,B,D] [G,,,G,,].[E,^CE] | [G,,,G,,].[D,G,D] [G,,,G,,].[D,B,] | %10
 [G,,,G,,].[D,G,B,D] [G,,,G,,].[D,G,B,D] | [G,,,G,,].[D,F,A,D] [G,,,G,,].[D,F,A,D] | %12
 [G,,,G,,].[D,G,B,D] [G,,,G,,].[D,B,D] | [G,,,G,,].[D,B,D] [G,,,G,,].[D,G,B,D] | %14
 [A,,,A,,].[E,G,A,^C] [A,,,A,,].[E,G,A,C] | [A,,,A,,].[E,G,A,^C] [A,,,A,,].[E,A,C] | %16
 [D,,D,].[F,A,D] [D,,D,].[F,A,D] | [D,,D,] z z2 | [G,,,G,,].[D,G,B,D] [G,,,G,,].[D,G,B,D] | %19
 [G,,,G,,].[D,F,A,D] [G,,,G,,].[D,F,A,D] | [G,,,G,,].[D,G,B,D] [G,,,G,,].[D,B,D] | %21
 [G,,,G,,].[D,B,D] [G,,,G,,].[D,G,B,D] | [G,,,G,,].[D,A,CD] [G,,,G,,].[D,A,CD] | %23
 [G,,,G,,].[D,A,CD] [G,,,G,,].[D,A,CD] | [G,,,G,,].[D,B,D] [G,,,G,,].[E,^CE] | %25
 [G,,,G,,].[D,G,D] [G,,,G,,].[D,B,] | [G,,,G,,].[D,G,B,D] [G,,,G,,].[D,G,B,D] | %27
 [G,,,G,,].[D,F,A,D] [G,,,G,,].[D,F,A,D] | [G,,,G,,].[D,G,B,D] [G,,,G,,].[D,B,D] | %29
 [G,,,G,,].[D,B,D] [G,,,G,,].[D,G,B,D] | [A,,,A,,].[E,G,A,^C] [A,,,A,,].[E,G,A,C] | %31
 [A,,,A,,].[E,G,A,^C] [A,,,A,,].[E,A,C] | [D,,D,].[F,A,D] [D,,D,].[F,A,D] | [D,D][D,D] [D,,D,] z | %34
!mf! .[D,,D,].[D,D][K:treble] .[Dd].[dd'] |[K:bass] .[D,,D,].[D,D][K:treble] .[Dd].[dd'] | %36
[K:bass] .[D,,D,].[D,D][K:treble] .[Dd].[dd'] |[K:bass] .[D,,D,].[D,D][K:treble] .[Dd].[dd'] | %38
[K:bass] .[D,,D,].[D,D][K:treble] .[Dd].[dd'] |[K:bass] .[D,,D,].[D,D][K:treble] .[Dd].[dd'] | %40
[K:bass] .[D,,D,].[D,D][K:treble] .[Dd].[dd'] |[K:bass] .[D,,D,].[D,D][K:treble] .[Dd].[dd'] | %42
[K:bass] .[D,,D,].[D,D][K:treble] .[Dd].[dd'] |[K:bass] .[D,,D,].[D,D][K:treble] .[Dd].[dd'] | %44
[K:bass] .[D,,D,].[D,D][K:treble] .[Dd].[dd'] |[K:bass] .[D,,D,].[D,D][K:treble] .[Dd].[dd'] | %46
[K:bass] .[D,,D,].[D,D][K:treble] .[Dd].[dd'] |[K:bass] .[D,,D,].[D,D][K:treble] .[Dd].[dd'] | %48
[K:bass] .[D,,D,].[D,D][K:treble] .[Dd].[dd'] |[K:bass] .[D,,D,].[D,D][K:treble] .[Dd].[dd'] | %50
[K:bass] [D,F,]2 [D,G,]2 | [D,A,]2 [D,B,]2 | [D,C]2 [D,B,]2 | [D,A,]2 [D,G,]2 | [D,F,]2 [D,G,]2 | %55
 [D,A,]2 [D,B,][D,^C] | [D,D] z z2 | z2 z [GB] | [G,,,G,,].[D,G,B,D] [G,,,G,,].[D,G,B,D] | %59
 [G,,,G,,].[D,F,A,D] [G,,,G,,].[D,F,A,D] | [G,,,G,,].[D,G,B,D] [G,,,G,,].[D,B,D] | %61
 [G,,,G,,].[D,B,D] [G,,,G,,].[D,G,B,D] | [G,,,G,,].[D,A,CD] [G,,,G,,].[D,A,CD] | %63
 [G,,,G,,].[D,A,CD] [G,,,G,,].[D,A,CD] | [G,,,G,,].[D,B,D] [G,,,G,,].[E,^CE] | %65
 [G,,,G,,].[D,G,D] [G,,,G,,].[D,B,] | [G,,,G,,].[D,G,B,D] [G,,,G,,].[D,G,B,D] | %67
 [G,,,G,,].[D,F,A,D] [G,,,G,,].[D,F,A,D] | [G,,,G,,].[D,G,B,D] [G,,,G,,].[D,B,D] | %69
 [G,,,G,,].[D,B,D] [G,,,G,,].[D,G,B,D] | [C,,C,].[G,A,E] [C,,C,].[G,A,E] | %71
 [D,,D,].[D,F,A,C] [D,,D,].[D,F,A,C] | [G,,D,][D,G,B,] [D,B,][B,,D,B,] | [G,,B,,D,G,] z z2 | %74
!f! [E,,G,,B,,E,]2 [G,,G,]2 | [B,,E,G,B,]2 [E,,E,]2 | [G,,B,,E,G,]2 [B,,B,]2 | %77
 [E,,G,,B,,E,][G,,G,] [B,,B,]2 | [E,,G,,B,,E,]2 [G,,G,]2 | [B,,E,G,B,]2 [E,,E,]2 | %80
 [G,,B,,E,G,][B,,B,] [E,,E,][G,,G,] | [B,,E,G,B,] z z2 | [E,,G,,B,,E,]2 [G,,G,]2 | %83
 [B,,E,G,B,]2 [E,,E,]2 | [G,,B,,E,G,]2 [B,,B,]2 | [E,,G,,B,,E,][G,,G,] [B,,B,]2 | %86
 [E,,G,,B,,E,]2 [G,,G,]2 | [B,,E,G,B,]2 [E,,E,]2 | [G,,B,,E,G,][B,,B,] [E,,E,][A,,A,] | %89
!mf! .[D,,D,].[D,D][K:treble] .[Dd].[dd'] |[K:bass] .[D,,D,].[D,D][K:treble] .[Dd].[dd'] | %91
[K:bass] .[D,,D,].[D,D][K:treble] .[Dd].[dd'] |[K:bass] .[D,,D,].[D,D][K:treble] .[Dd].[dd'] | %93
[K:bass] .[D,,D,].[D,D][K:treble] .[Dd].[dd'] |[K:bass] .[D,,D,].[D,D][K:treble] .[Dd].[dd'] | %95
[K:bass] .[D,,D,].[D,D][K:treble] .[Dd].[dd'] |[K:bass] .[D,,D,].[D,D][K:treble] .[Dd].[dd'] | %97
[K:bass] .[D,,D,].[D,D][K:treble] .[Dd].[dd'] |[K:bass] [D,F,]2 [D,G,]2 | [D,A,]2 [D,B,]2 | %100
 [D,C]2 [D,B,]2 | [D,A,]2 [D,G,]2 | [D,F,]2 [D,G,]2 | [D,A,]2 [D,B,][D,^C] | [D,D] z z2 | %105
 z2 z [GB] | [G,,,G,,].[D,G,B,D] [G,,,G,,].[D,G,B,D] | [G,,,G,,].[D,F,A,D] [G,,,G,,].[D,F,A,D] | %108
 [G,,,G,,].[D,G,B,D] [G,,,G,,].[D,B,D] | [G,,,G,,].[D,B,D] [G,,,G,,].[D,G,B,D] | %110
 [G,,,G,,].[D,A,CD] [G,,,G,,].[D,A,CD] | [G,,,G,,].[D,A,CD] [G,,,G,,].[D,A,CD] | %112
 [G,,,G,,].[D,B,D] [G,,,G,,].[E,^CE] | [G,,,G,,].[D,G,D] [G,,,G,,].[D,B,] | %114
 [G,,,G,,].[D,G,B,D] [G,,,G,,].[D,G,B,D] | [G,,,G,,].[D,F,A,D] [G,,,G,,].[D,F,A,D] | %116
 [G,,,G,,].[D,G,B,D] [G,,,G,,].[D,B,D] | [G,,,G,,].[D,B,D] [G,,,G,,].[D,G,B,D] | %118
 [E,,E,].[E,G,B,E] [E,,E,].[E,G,B,E] | [E,,E,].[E,G,B,] [E,,E,].[E,G,B,E] | %120
 [B,,,B,,].[^D,F,B,^D] [B,,,B,,].[D,F,B,D] | [B,,,B,,].[^D,F,B,^D] [B,,,B,,].[D,F,B,D] | %122
!ff! [E,,E,]2 [=F,,=F,]2 | [E,,E,]2 [_E,,_E,]2 | [E,,E,]2 [=F,,=F,]2 | [E,,E,]2 [_E,,_E,]2 | %126
 [D,,D,]2 z2 | [E,,E,]2 z2 | [C,,C,]2 z2 | [D,,D,F,]2 z2 | [E,,E,]2 [=F,,=F,]2 | %131
 [E,,E,]2 [_E,,_E,]2 | [E,,E,]2 [=F,,=F,]2 | [E,,E,]2 [_E,,_E,]2 | [D,,D,]2 z2 | [E,,E,]2 z2 | %136
 [C,,C,]2 z2 | [D,,D,F,]2 z2 | [G,,G,]2 [D,,D,]2 | [G,,G,]2 [D,,D,]2 | [G,,G,]2 [D,,D,]2 | %141
 [G,,G,]2 [D,,D,]2 | [G,,G,]2 [G,,G,]2 | [G,,D,]2 [G,,B,,]2 | G,,2 [G,,G,]2 | [G,,D,]2 [G,,B,,]2 | %146
 !///-!G,,2 G,2 | !///-!G,,2 G,2 | !////-!G,,,2 G,,2 |] %149
V:3
 z .[GBg] z .[GBg] | z .[GBg] z .[GBg] | z .[GBg] z .[GBg] | z .[Fcf] z .[Fcf] | z .[GBg] z .[Bd] | %5
 z .[Bd] z .[GBg] | z .[Fcf] z .[Fcf] | z .[Fcf] z .[Fcf] | z .[GBg] z .[G^cg] | %9
 z .[Gdg] z .[GBg] | z .[GBg] z .[GBg] | z .[Fcf] z .[Fcf] | z .[GBg] z .[Bd] | z .[Bd] z .[GBg] | %14
 z .[E^ce] z .[Ece] | z .[E^ce] z .[Gc] | z .[FAf] z .[Fdf] | [Afa] z z z | z .[GBg] z .[GBg] | %19
 z .[Fcf] z .[Fcf] | z .[GBg] z .[Bd] | z .[Bd] z .[GBg] | z .[Fcf] z .[Fcf] | z .[Fcf] z .[Fcf] | %24
 z .[GBg] z .[G^cg] | z .[Gdg] z .[GBg] | z .[GBg] z .[GBg] | z .[Fcf] z .[Fcf] | %28
 z .[GBg] z .[Bd] | z .[Bd] z .[GBg] | z .[E^ce] z .[Ece] | z .[E^ce] z .[Gc] | z .[FAf] z .[Fdf] | %33
 [Afa] z z2 | z [FA] [Ac]2 | z [^E^G] [GB]2 | z [FA] [Ac]2 | z4 | z [Ac] [ce]2 | z [^GB] [Bd]2 | %40
 z [FA] [Ac]2 | z4 | z [FA] [Ac]2 | z [^E^G] [GB]2 | z [FA] [Ac]2 | z4 | z [Ac] [ce]2 | %47
 z [^GB] [Bd]2 | z [FA] [Ac]2 | z4 | z4 | z4 | z4 | z4 | z4 | z4 | z4 | z4 | z .[GBg] z .[GBg] | %59
 z .[Fcf] z .[Fcf] | z .[GBg] z .[Bd] | z .[Bd] z .[GBg] | z .[Fcf] z .[Fcf] | z .[Fcf] z .[Fcf] | %64
 z .[GBg] z .[G^cg] | z .[Gdg] z .[GBg] | z .[GBg] z .[GBg] | z .[Fcf] z .[Fcf] | %68
 z .[GBg] z .[Bd] | z .[Bd] z .[GBg] | z .[Geg] z .[Geg] | z .[Fcf] z .[Fcf] | z [Bd] [dg][gb] | %73
 [gbd']^c/^d/ e/f/g/a/ |!f! [GBg]2 [GBe]2 | [GB^d]2 [GBg]2 | [GBe]2 [GB^d]2 | [GBg][GBe] [GB^d]2 | %78
 [GBg]2 [GBe]2 | [GB^d]2 [GBg]2 | [GBe][GB^d] [GBg][GBe] | [GB^df]^c/d/ e/f/g/a/ | [GBg]2 [GBe]2 | %83
 [GB^d]2 [GBg]2 | [GBe]2 [GB^d]2 | [GBg][GBe] [GB^d]2 | [GBg]2 [GBe]2 | [GB^d]2 [GBg]2 | %88
 [Be][B^d] [Beg][Geg] | [Adf] z z2 | z!f! [FA] [Ac]2 | z [^E^G] [GB]2 | z [FA] [Ac]2 | z4 | %94
 z [Ac] [ce]2 | z [^GB] [Bd]2 | z [FA] [Ac]2 | z4 | z4 | z4 | z4 | z4 | z4 | z4 | z4 | z4 | %106
 z .[GBg] z .[GBg] | z .[Fcf] z .[Fcf] | z .[GBg] z .[Bd] | z .[Bd] z .[GBg] | z .[Fcf] z .[Fcf] | %111
 z .[Fcf] z .[Fcf] | z .[GBg] z .[G^cg] | z .[Gdg] z .[GBg] | z .[GBg] z .[GBg] | %115
 z .[Fcf] z .[Fcf] | z .[GBg] z .[Bd] | z .[Bd] z .[GBg] | z .[Geg] z .[Geg] | z .[Geg] z .[GBg] | %120
 z .[F^df] z .[Fdf] | z .[F^df] z .[Fdf] | [Bgb]2 [Bgb]2 | [cgac']2 [^cg^a^c']2 | [dgbd']2 [Bgb]2 | %125
 [cgac']2 [^cg^a^c']2 | [G,B,DG]2 z2 | [G,B,EB]2 z2 | [A,DA]2 z2 | [A,CA]2 z2 | [Bgb]2 [Bgb]2 | %131
 [cgac']2 [^cg^a^c']2 | [dgbd']2 [Bgb]2 | [cgac']2 [^cg^a^c']2 | [G,B,DG]2 z2 | [G,B,EB]2 z2 | %136
 [A,DA]2 z2 | [A,CA]2 z2 | [B,GB]2 [A,FA]2 | [B,GB]2 [A,FA]2 | [B,GB]2 [A,FA]2 | [B,GB]2 [A,FA]2 | %142
 [GBd]2 [GBd]2 | [GBd]2 [GBd]2 | [GBd]2 [GBd]2 | [GBd]2 [GBd]2 | [GBd]2 z2 | [Bdg]2 z2 | %148
[K:bass] [B,,D,]4 |] %149
V:4
 x4 | x4 | x4 | x4 | x4 | x4 | x4 | x4 | x4 | x4 | x4 | x4 | x4 | x4 | x4 | x4 | x4 | x4 | x4 | %19
 x4 | x4 | x4 | x4 | x4 | x4 | x4 | x4 | x4 | x4 | x4 | x4 | x4 | x4 | x4 | x4 | x4 | x4 | x4 | %38
 x4 | x4 | x4 | x4 | x4 | x4 | x4 | x4 | x4 | x4 | x4 | x4 | x4 | x4 | x4 | x4 | x4 | x4 | x4 | %57
 x4 | x4 | x4 | x4 | x4 | x4 | x4 | x4 | x4 | x4 | x4 | x4 | x4 | x4 | x4 | x4 | g' z z2 | x4 | %75
 x4 | x4 | x4 | x4 | x4 | x4 | x4 | x4 | x4 | x4 | x4 | x4 | x4 | x4 | x4 | x4 | x4 | x4 | x4 | %94
 x4 | x4 | x4 | x4 | x4 | x4 | x4 | x4 | x4 | x4 | x4 | x4 | x4 | x4 | x4 | x4 | x4 | x4 | x4 | %113
 x4 | x4 | x4 | x4 | x4 | x4 | x4 | x4 | x4 | x4 | x4 | x4 | x4 | x4 | x4 | x4 | x4 | x4 | x4 | %132
 x4 | x4 | x4 | x4 | x4 | x4 | x4 | x4 | x4 | x4 | x4 | x4 | x4 | x4 | x4 | x4 | x4 |] %149

